source/img/sprite/pine-tree.svg

<svg width="25" height="25" viewBox="0 0 25 25" fill="none" xmlns="http://www.w3.org/2000/svg">
<g clip-path="url(#clip0_809_725)">
<rect width="25" height="25" fill="white"/>
<path d="M24.5913 18.0832L19.6844 12.4696H22.0552C22.3319 12.4689 22.5558 12.244 22.5552 11.9672C22.5549 11.857 22.5183 11.7499 22.4511 11.6626L18.5115 6.48504H20.5164C20.7932 6.48466 21.0173 6.25999 21.017 5.98319C21.0169 5.86165 20.9725 5.7443 20.8923 5.65302L16.0706 0.169703C15.8876 -0.0379264 15.5708 -0.0577872 15.3632 0.125345C15.3474 0.139191 15.3326 0.15404 15.3188 0.169703L10.4921 5.648C10.3066 5.8535 10.3229 6.17046 10.5283 6.35591C10.6214 6.43993 10.7426 6.48598 10.868 6.48504H12.8979L11.685 8.06888L8.43709 4.37491C8.25402 4.16728 7.93725 4.14742 7.72962 4.33055C7.7139 4.3444 7.69911 4.35925 7.68527 4.37491L3.56025 9.06129C3.37756 9.26923 3.39804 9.58594 3.60599 9.76863C3.69727 9.84883 3.81462 9.89312 3.93616 9.89331H5.52502L2.22701 14.2088C2.06368 14.4323 2.11236 14.7458 2.33584 14.9092C2.41929 14.9703 2.5196 15.004 2.62298 15.0057H4.47748L0.402585 19.6921C0.222648 19.9024 0.24727 20.2188 0.457656 20.3988C0.547123 20.4754 0.660774 20.518 0.778497 20.5191H6.32196V24.0276C6.32196 24.5646 6.75733 25 7.29432 25H8.82303C9.36002 25.0027 9.79764 24.5697 9.8004 24.0326C9.8004 24.0309 9.8004 24.0293 9.8004 24.0276V20.5191H13.9605V24.0276C13.9605 24.5646 14.3959 25 14.9329 25H16.4616C16.9986 25 17.4339 24.5646 17.4339 24.0276V18.9152H24.2154C24.4922 18.9148 24.7163 18.6902 24.716 18.4134C24.7158 18.2918 24.6715 18.1745 24.5913 18.0832ZM8.79797 23.9976L7.32439 24.0276L7.29432 20.5191H8.79797V23.9976ZM13.9605 19.5167H1.88117L5.98113 14.8403C6.1667 14.6349 6.1506 14.318 5.94523 14.1324C5.8495 14.046 5.72413 13.9997 5.59519 14.0033H3.64045L6.93845 9.68781C7.1073 9.46847 7.06639 9.15376 6.84704 8.98492C6.75971 8.91769 6.6527 8.8811 6.54249 8.88085H5.03884L8.04614 5.45754L11.0534 8.87083L8.93831 11.6676C8.76946 11.887 8.81037 12.2017 9.02972 12.3705C9.11705 12.4377 9.22406 12.4743 9.33427 12.4746H11.71L6.80312 18.0882C6.62043 18.2962 6.64092 18.6129 6.84886 18.7955C6.94014 18.8757 7.05749 18.92 7.17904 18.9202H13.9605V19.5167ZM16.4315 23.9875L14.9629 24.0276L14.9329 18.9152H16.4365L16.4315 23.9875ZM16.4616 17.9128H8.28171L13.1886 12.2992C13.3713 12.0912 13.3508 11.7745 13.1429 11.5918C13.0516 11.5116 12.9343 11.4673 12.8127 11.4671H10.3517L14.3114 6.28455C14.4774 6.06314 14.4326 5.74894 14.2112 5.58285C14.1258 5.51881 14.0222 5.48367 13.9154 5.4826H11.9957L15.7148 1.26236L19.4137 5.4826H17.479C17.2022 5.48329 16.9784 5.70821 16.979 5.98501C16.9793 6.09521 17.0159 6.20222 17.0831 6.28956L21.0176 11.4671H18.5767C18.2999 11.4675 18.0758 11.6922 18.0761 11.969C18.0762 12.0905 18.1206 12.2079 18.2008 12.2992L23.1077 17.9128H16.4616Z" fill="#2D383F"/>
</g>
</svg>

<svg width="25" height="25" fill="none" xmlns="http://www.w3.org/2000/svg"><g clip-path="url(#clip0_809_725)"><path fill="#fff" d="M0 0h25v25H0z"/><path d="m24.6 18.08-4.92-5.61h2.38a.5.5 0 0 0 .4-.8L18.5 6.48h2a.5.5 0 0 0 .38-.84L16.07.17a.5.5 0 0 0-.75 0l-4.83 5.48a.5.5 0 0 0 .38.84h2.03l-1.21 1.58-3.25-3.7a.5.5 0 0 0-.75 0l-4.13 4.7a.5.5 0 0 0 .38.82h1.59l-3.3 4.32a.5.5 0 0 0 .4.8h1.85L.4 19.69a.5.5 0 0 0 .38.83h5.54v3.5c0 .54.44.98.97.98h1.53c.54 0 .98-.43.98-.97v-3.51h4.16v3.5c0 .54.44.98.97.98h1.53c.54 0 .97-.44.97-.97v-5.11h6.79a.5.5 0 0 0 .37-.84ZM8.8 24l-1.48.03-.03-3.51h1.5V24Zm5.16-4.48H1.88l4.1-4.68A.5.5 0 0 0 5.6 14H3.64l3.3-4.31a.5.5 0 0 0-.4-.8h-1.5l3-3.43 3.01 3.41-2.11 2.8a.5.5 0 0 0 .4.8h2.37l-4.9 5.62a.5.5 0 0 0 .37.83h6.78v.6Zm2.47 4.47-1.47.04-.03-5.11h1.5v5.07Zm.03-6.08H8.28l4.9-5.61a.5.5 0 0 0-.37-.83h-2.46l3.96-5.19a.5.5 0 0 0-.4-.8H12l3.71-4.22 3.7 4.22h-1.93a.5.5 0 0 0-.4.81l3.94 5.18h-2.44a.5.5 0 0 0-.38.83l4.9 5.61h-6.64Z" fill="#2D383F"/></g></svg>
